icons/Lighthouse.svg

<svg width="24" height="24" viewBox="0 0 24 24" fill="none" xmlns="http://www.w3.org/2000/svg">
<path fill-rule="evenodd" clip-rule="evenodd" d="M11.564,2.3897c0.2607,-0.18627 0.611,-0.18627 0.8718,0l3.5,2.5c0.2653,0.1895 0.3778,0.5287 0.2783,0.83918c-0.073,0.22768 -0.2477,0.40167 -0.4642,0.47828v3.58552c0.2913,0.10296 0.5,0.38072 0.5,0.70732c0,0.4142 -0.3358,0.75 -0.75,0.75h-0.1752l0.1599,1.6789l0.381,4l0.3163,3.3211h0.818c0.4142,0 0.75,0.3358 0.75,0.75c0,0.4142 -0.3358,0.75 -0.75,0.75h-1.5h-7.00001h-1.5c-0.41421,0 -0.75,-0.3358 -0.75,-0.75c0,-0.4142 0.33579,-0.75 0.75,-0.75h0.81804l0.0782,-0.8211l0.42857,-4.5l0.35037,-3.6789h-0.17518c-0.41421,0 -0.75,-0.3358 -0.75,-0.75c0,-0.3266 0.2087,-0.60436 0.5,-0.70732v-3.58552c-0.21656,-0.07661 -0.39126,-0.2506 -0.46422,-0.47828c-0.0995,-0.31048 0.01299,-0.64968 0.27829,-0.83918zM9.74989,9.75h1.50001v-3.5h-1.50001zM12.7499,9.75h1.5v-3.5h-1.5zM11.9999,3.92168l-1.1597,0.82832h1.1597h1.1596zM13.8179,11.25h-1.818h-1.818l-0.2526,2.6518l4.0065,-1.414zM14.0824,14.0267l-4.30986,1.5212l-0.26816,2.8155l4.81402,-1.8583zM14.4661,18.056l-5.12069,1.9767l-0.0207,0.2173h5.35039zM4.46958,4.46967c0.29289,-0.29289 0.76777,-0.29289 1.06066,0l1,1c0.29289,0.29289 0.29289,0.76777 0,1.06066c-0.29289,0.29289 -0.76777,0.29289 -1.06066,0l-1,-1c-0.29289,-0.29289 -0.29289,-0.76777 0,-1.06066zM2.24991,8c0,-0.41421 0.33578,-0.75 0.75,-0.75h1.5c0.41421,0 0.75,0.33579 0.75,0.75c0,0.41421 -0.33579,0.75 -0.75,0.75h-1.5c-0.41422,0 -0.75,-0.33579 -0.75,-0.75zM6.53024,9.46967c0.29289,0.29289 0.29289,0.76773 0,1.06063l-1,1c-0.29289,0.2929 -0.76777,0.2929 -1.06066,0c-0.29289,-0.2929 -0.29289,-0.7677 0,-1.0606l1,-1.00003c0.29289,-0.29289 0.76777,-0.29289 1.06066,0zM18.4696,4.46967c0.2929,-0.29289 0.7677,-0.29289 1.0606,0c0.2929,0.29289 0.2929,0.76777 0,1.06066l-1,1c-0.2929,0.29289 -0.7677,0.29289 -1.0606,0c-0.2929,-0.29289 -0.2929,-0.76777 0,-1.06066zM20.9999,7.25c0.4142,0 0.75,0.33579 0.75,0.75c0,0.41421 -0.3358,0.75 -0.75,0.75h-1.5c-0.4142,0 -0.75,-0.33579 -0.75,-0.75c0,-0.41421 0.3358,-0.75 0.75,-0.75zM17.4696,10.5303c-0.2929,-0.2929 -0.2929,-0.76774 0,-1.06063c0.2929,-0.29289 0.7677,-0.29289 1.0606,0l1,1.00003c0.2929,0.2929 0.2929,0.7677 0,1.0606c-0.2929,0.2929 -0.7677,0.2929 -1.0606,0z" fill="#002B51"/>
</svg>

<svg width="24" height="24" viewBox="0 0 24 24" fill="none" xmlns="http://www.w3.org/2000/svg">
<path fill-rule="evenodd" clip-rule="evenodd" d="M11.564 2.3897C11.8247 2.20343 12.175 2.20343 12.4358 2.3897L15.9358 4.8897C16.2011 5.0792 16.3136 5.4184 16.2141 5.72888C16.1411 5.95656 15.9664 6.13055 15.7499 6.20716V9.79268C16.0412 9.89564 16.2499 10.1734 16.2499 10.5C16.2499 10.9142 15.9141 11.25 15.4999 11.25H15.3247L15.4846 12.9289L15.8656 16.9289L16.1819 20.25H16.9999C17.4141 20.25 17.7499 20.5858 17.7499 21C17.7499 21.4142 17.4141 21.75 16.9999 21.75H15.4999H8.49989H6.99989C6.58568 21.75 6.24989 21.4142 6.24989 21C6.24989 20.5858 6.58568 20.25 6.99989 20.25H7.81793L7.89613 19.4289L8.3247 14.9289L8.67507 11.25H8.49989C8.08568 11.25 7.74989 10.9142 7.74989 10.5C7.74989 10.1734 7.95859 9.89564 8.24989 9.79268V6.20716C8.03333 6.13055 7.85863 5.95656 7.78567 5.72888C7.68617 5.4184 7.79866 5.0792 8.06396 4.8897L11.564 2.3897ZM9.74989 9.75H11.2499V6.25H9.74989V9.75ZM12.7499 9.75H14.2499V6.25H12.7499V9.75ZM13.1595 4.75H11.9999H10.8402L11.9999 3.92168L13.1595 4.75ZM13.8179 11.25H11.9999H10.1819L9.9293 13.9018L13.9358 12.4878L13.8179 11.25ZM14.0824 14.0267L9.77254 15.5479L9.50438 18.3634L14.3184 16.5051L14.0824 14.0267ZM14.4661 18.056L9.34541 20.0327L9.32471 20.25H14.6751L14.4661 18.056ZM4.46958 4.46967C4.76247 4.17678 5.23735 4.17678 5.53024 4.46967L6.53024 5.46967C6.82313 5.76256 6.82313 6.23744 6.53024 6.53033C6.23735 6.82322 5.76247 6.82322 5.46958 6.53033L4.46958 5.53033C4.17669 5.23744 4.17669 4.76256 4.46958 4.46967ZM2.24991 8C2.24991 7.58579 2.58569 7.25 2.99991 7.25H4.49991C4.91412 7.25 5.24991 7.58579 5.24991 8C5.24991 8.41421 4.91412 8.75 4.49991 8.75H2.99991C2.58569 8.75 2.24991 8.41421 2.24991 8ZM6.53024 9.46967C6.82313 9.76256 6.82313 10.2374 6.53024 10.5303L5.53024 11.5303C5.23735 11.8232 4.76247 11.8232 4.46958 11.5303C4.17669 11.2374 4.17669 10.7626 4.46958 10.4697L5.46958 9.46967C5.76247 9.17678 6.23735 9.17678 6.53024 9.46967ZM18.4696 4.46967C18.7625 4.17678 19.2373 4.17678 19.5302 4.46967C19.8231 4.76256 19.8231 5.23744 19.5302 5.53033L18.5302 6.53033C18.2373 6.82322 17.7625 6.82322 17.4696 6.53033C17.1767 6.23744 17.1767 5.76256 17.4696 5.46967L18.4696 4.46967ZM20.9999 7.25C21.4141 7.25 21.7499 7.58579 21.7499 8C21.7499 8.41421 21.4141 8.75 20.9999 8.75H19.4999C19.0857 8.75 18.7499 8.41421 18.7499 8C18.7499 7.58579 19.0857 7.25 19.4999 7.25H20.9999ZM17.4696 10.5303C17.1767 10.2374 17.1767 9.76256 17.4696 9.46967C17.7625 9.17678 18.2373 9.17678 18.5302 9.46967L19.5302 10.4697C19.8231 10.7626 19.8231 11.2374 19.5302 11.5303C19.2373 11.8232 18.7625 11.8232 18.4696 11.5303L17.4696 10.5303Z" fill="#002B51"/>
</svg>
